assets/img/components/textarea-header.svg

<svg width="578" height="145" viewBox="0 0 578 145" fill="none" xmlns="http://www.w3.org/2000/svg">
<path d="M532.344 74.2495C550.362 74.2495 564.969 59.6428 564.969 41.6245C564.969 23.6062 550.362 8.99951 532.344 8.99951C514.325 8.99951 499.719 23.6062 499.719 41.6245C499.719 59.6428 514.325 74.2495 532.344 74.2495Z" fill="#286AD8"/>
<path d="M578 145H433V0L578 145Z" fill="#286AD8"/>
<path d="M182.424 0C160.651 0 143 17.8525 143 39.8751V145H433V0H182.424Z" fill="#286AD8"/>
<path d="M145 105.125L145 0C64.9187 0 0 64.9187 0 145L105.125 145C127.147 145 145 127.147 145 105.125Z" fill="#286AD8"/>
<g style="mix-blend-mode:multiply" opacity="0.4">
<path d="M263.5 57C264.427 57 265.242 57.4778 265.759 58.2061L277.607 70H380.804C382.26 70 383.546 70.6934 384.407 71.7588L459.45 145H219.852L198.313 123.462C197.217 122.582 196.5 121.229 196.5 119.692V74.8076C196.5 72.1526 198.602 70.0002 201.195 70H207.051L199.628 62.5137C198.85 61.9789 198.333 61.0551 198.333 60C198.333 58.3431 199.602 57 201.167 57H263.5Z" fill="#1545BB"/>
</g>
<path d="M380.804 70H201.196C198.602 70 196.5 72.1525 196.5 74.8077V119.692C196.5 122.348 198.602 124.5 201.196 124.5H380.804C383.397 124.5 385.5 122.348 385.5 119.692V74.8077C385.5 72.1525 383.397 70 380.804 70Z" fill="#5187DF"/>
<path d="M198.333 60C198.333 58.3431 199.602 57 201.166 57H263.5C265.064 57 266.333 58.3431 266.333 60C266.333 61.6569 265.064 63 263.5 63H201.166C199.602 63 198.333 61.6569 198.333 60Z" fill="#5187DF"/>
<path opacity="0.6" d="M206.333 82.25C206.333 81.0073 207.284 80 208.458 80H288.208C289.382 80 290.333 81.0073 290.333 82.25C290.333 83.4927 289.382 84.5 288.208 84.5H208.458C207.284 84.5 206.333 83.4927 206.333 82.25Z" fill="#1545BB"/>
<path opacity="0.6" d="M206.333 92.75C206.333 91.5073 207.284 90.5 208.458 90.5H271.333C272.507 90.5 273.458 91.5073 273.458 92.75C273.458 93.9927 272.507 95 271.333 95H208.458C207.284 95 206.333 93.9927 206.333 92.75Z" fill="#1545BB"/>
</svg>

<svg xmlns="http://www.w3.org/2000/svg" width="578" height="145" fill="none" viewBox="0 0 578 145"><path fill="#286ad8" d="M532.344 74.25c18.018 0 32.625-14.607 32.625-32.626S550.362 9 532.344 9s-32.625 14.606-32.625 32.624 14.606 32.625 32.625 32.625M578 145H433V0zM182.424 0C160.651 0 143 17.853 143 39.875V145h290V0z"/><path fill="#286ad8" d="M145 105.125V0C64.919 0 0 64.919 0 145h105.125C127.147 145 145 127.147 145 105.125"/><path fill="#1545bb" d="M263.5 57c.927 0 1.742.478 2.259 1.206L277.607 70h103.197c1.456 0 2.742.693 3.603 1.759L459.45 145H219.852l-21.539-21.538a4.82 4.82 0 0 1-1.813-3.77V74.808c0-2.655 2.102-4.808 4.695-4.808h5.856l-7.423-7.486A3.04 3.04 0 0 1 198.333 60c0-1.657 1.269-3 2.834-3z" opacity=".4" style="mix-blend-mode:multiply"/><path fill="#5187df" d="M380.804 70H201.196c-2.594 0-4.696 2.153-4.696 4.808v44.884c0 2.656 2.102 4.808 4.696 4.808h179.608c2.593 0 4.696-2.152 4.696-4.808V74.808c0-2.656-2.103-4.808-4.696-4.808M198.333 60c0-1.657 1.269-3 2.833-3H263.5c1.564 0 2.833 1.343 2.833 3s-1.269 3-2.833 3h-62.334c-1.564 0-2.833-1.343-2.833-3"/><path fill="#1545bb" d="M206.333 82.25c0-1.243.951-2.25 2.125-2.25h79.75c1.174 0 2.125 1.007 2.125 2.25s-.951 2.25-2.125 2.25h-79.75c-1.174 0-2.125-1.007-2.125-2.25M206.333 92.75c0-1.243.951-2.25 2.125-2.25h62.875c1.174 0 2.125 1.007 2.125 2.25s-.951 2.25-2.125 2.25h-62.875c-1.174 0-2.125-1.007-2.125-2.25" opacity=".6"/></svg>
